packages/icons/src/banknote-two.svg

<svg width="24" height="24" viewBox="0 0 24 24" fill="none" xmlns="http://www.w3.org/2000/svg">
<path fill-rule="evenodd" clip-rule="evenodd" d="M23 5V16H19V19H1V9L4 8.999V5H23ZM17 11H3V17H17V11ZM10 11.75C11.2426 11.75 12.25 12.7574 12.25 14C12.25 15.2426 11.2426 16.25 10 16.25C8.75736 16.25 7.75 15.2426 7.75 14C7.75 12.7574 8.75736 11.75 10 11.75ZM14.5 13C15.0523 13 15.5 13.4477 15.5 14C15.5 14.5523 15.0523 15 14.5 15C13.9477 15 13.5 14.5523 13.5 14C13.5 13.4477 13.9477 13 14.5 13ZM5.5 13C6.05228 13 6.5 13.4477 6.5 14C6.5 14.5523 6.05228 15 5.5 15C4.94772 15 4.5 14.5523 4.5 14C4.5 13.4477 4.94772 13 5.5 13ZM10 13.25C9.58579 13.25 9.25 13.5858 9.25 14C9.25 14.4142 9.58579 14.75 10 14.75C10.4142 14.75 10.75 14.4142 10.75 14C10.75 13.5858 10.4142 13.25 10 13.25ZM21 7H6V8.999L19 9V14H21V7Z" fill="black"/>
</svg>

<svg xmlns="http://www.w3.org/2000/svg" width="24" height="24" fill="none" viewBox="0 0 24 24">
  <path fill="#000" fill-rule="evenodd" d="M23 5v11h-4v3H1V9l3-.001V5h19Zm-6 6H3v6h14v-6Zm-7 .75a2.25 2.25 0 1 1 0 4.5 2.25 2.25 0 0 1 0-4.5ZM14.5 13a1 1 0 1 1 0 2 1 1 0 0 1 0-2Zm-9 0a1 1 0 1 1 0 2 1 1 0 0 1 0-2Zm4.5.25a.75.75 0 1 0 0 1.5.75.75 0 0 0 0-1.5ZM21 7H6v1.999L19 9v5h2V7Z" clip-rule="evenodd"/>
</svg>
